public/whatsapp.svg

<?xml version="1.0" encoding="utf-8"?>
<!-- License: MIT. Made by Garuda Technology: https://github.com/garudatechnologydevelopers/sketch-icons -->
<svg width="800px" height="800px" viewBox="0 0 32 32" fill="none" xmlns="http://www.w3.org/2000/svg">
<path fill-rule="evenodd" clip-rule="evenodd" d="M16 31C23.732 31 30 24.732 30 17C30 9.26801 23.732 3 16 3C8.26801 3 2 9.26801 2 17C2 19.5109 2.661 21.8674 3.81847 23.905L2 31L9.31486 29.3038C11.3014 30.3854 13.5789 31 16 31ZM16 28.8462C22.5425 28.8462 27.8462 23.5425 27.8462 17C27.8462 10.4576 22.5425 5.15385 16 5.15385C9.45755 5.15385 4.15385 10.4576 4.15385 17C4.15385 19.5261 4.9445 21.8675 6.29184 23.7902L5.23077 27.7692L9.27993 26.7569C11.1894 28.0746 13.5046 28.8462 16 28.8462Z" fill="#BFC8D0"/>
<path d="M28 16C28 22.6274 22.6274 28 16 28C13.4722 28 11.1269 27.2184 9.19266 25.8837L5.09091 26.9091L6.16576 22.8784C4.80092 20.9307 4 18.5589 4 16C4 9.37258 9.37258 4 16 4C22.6274 4 28 9.37258 28 16Z" fill="url(#paint0_linear_87_7264)"/>
<path fill-rule="evenodd" clip-rule="evenodd" d="M16 30C23.732 30 30 23.732 30 16C30 8.26801 23.732 2 16 2C8.26801 2 2 8.26801 2 16C2 18.5109 2.661 20.8674 3.81847 22.905L2 30L9.31486 28.3038C11.3014 29.3854 13.5789 30 16 30ZM16 27.8462C22.5425 27.8462 27.8462 22.5425 27.8462 16C27.8462 9.45755 22.5425 4.15385 16 4.15385C9.45755 4.15385 4.15385 9.45755 4.15385 16C4.15385 18.5261 4.9445 20.8675 6.29184 22.7902L5.23077 26.7692L9.27993 25.7569C11.1894 27.0746 13.5046 27.8462 16 27.8462Z" fill="white"/>
<path d="M12.5 9.49989C12.1672 8.83131 11.6565 8.8905 11.1407 8.8905C10.2188 8.8905 8.78125 9.99478 8.78125 12.05C8.78125 13.7343 9.52345 15.578 12.0244 18.3361C14.438 20.9979 17.6094 22.3748 20.2422 22.3279C22.875 22.2811 23.4167 20.0154 23.4167 19.2503C23.4167 18.9112 23.2062 18.742 23.0613 18.696C22.1641 18.2654 20.5093 17.4631 20.1328 17.3124C19.7563 17.1617 19.5597 17.3656 19.4375 17.4765C19.0961 17.8018 18.4193 18.7608 18.1875 18.9765C17.9558 19.1922 17.6103 19.083 17.4665 19.0015C16.9374 18.7892 15.5029 18.1511 14.3595 17.0426C12.9453 15.6718 12.8623 15.2001 12.5959 14.7803C12.3828 14.4444 12.5392 14.2384 12.6172 14.1483C12.9219 13.7968 13.3426 13.254 13.5313 12.9843C13.7199 12.7145 13.5702 12.305 13.4803 12.05C13.0938 10.953 12.7663 10.0347 12.5 9.49989Z" fill="white"/>
<defs>
<linearGradient id="paint0_linear_87_7264" x1="26.5" y1="7" x2="4" y2="28" gradientUnits="userSpaceOnUse">
<stop stop-color="#5BD066"/>
<stop offset="1" stop-color="#27B43E"/>
</linearGradient>
</defs>
</svg>

<svg xmlns="http://www.w3.org/2000/svg" width="800" height="800" fill="none" viewBox="0 0 32 32"><path fill="#bfc8d0" fill-rule="evenodd" d="M16 31c7.732 0 14-6.268 14-14S23.732 3 16 3 2 9.268 2 17c0 2.51.661 4.867 1.818 6.905L2 31l7.315-1.696A13.94 13.94 0 0 0 16 31m0-2.154c6.543 0 11.846-5.303 11.846-11.846 0-6.542-5.303-11.846-11.846-11.846C9.458 5.154 4.154 10.458 4.154 17c0 2.526.79 4.868 2.138 6.79L5.23 27.77l4.049-1.013a11.8 11.8 0 0 0 6.72 2.09" clip-rule="evenodd"/><path fill="url(#a)" d="M28 16c0 6.627-5.373 12-12 12-2.528 0-4.873-.782-6.807-2.116L5.09 26.909l1.075-4.03A11.95 11.95 0 0 1 4 16C4 9.373 9.373 4 16 4s12 5.373 12 12"/><path fill="#fff" fill-rule="evenodd" d="M16 30c7.732 0 14-6.268 14-14S23.732 2 16 2 2 8.268 2 16c0 2.51.661 4.867 1.818 6.905L2 30l7.315-1.696A13.94 13.94 0 0 0 16 30m0-2.154c6.543 0 11.846-5.303 11.846-11.846 0-6.542-5.303-11.846-11.846-11.846C9.458 4.154 4.154 9.458 4.154 16c0 2.526.79 4.868 2.138 6.79L5.23 26.77l4.049-1.013a11.8 11.8 0 0 0 6.72 2.09" clip-rule="evenodd"/><path fill="#fff" d="M12.5 9.5c-.333-.669-.844-.61-1.36-.61-.921 0-2.359 1.105-2.359 3.16 0 1.684.742 3.528 3.243 6.286 2.414 2.662 5.585 4.039 8.218 3.992s3.175-2.313 3.175-3.078c0-.339-.21-.508-.356-.554-.897-.43-2.552-1.233-2.928-1.384-.377-.15-.573.054-.695.165-.342.325-1.019 1.284-1.25 1.5s-.578.106-.721.024c-.53-.212-1.964-.85-3.107-1.958-1.415-1.371-1.498-1.843-1.764-2.263-.213-.336-.057-.542.021-.632.305-.351.726-.894.914-1.164s.04-.679-.05-.934c-.387-1.097-.715-2.015-.981-2.55"/><defs><linearGradient id="a" x1="26.5" x2="4" y1="7" y2="28" gradientUnits="userSpaceOnUse"><stop stop-color="#5bd066"/><stop offset="1" stop-color="#27b43e"/></linearGradient></defs></svg>
